packages/core/src/svgs/networks/mono/manta-pacific.svg

<svg width="24" height="24" viewBox="0 0 24 24" fill="none" xmlns="http://www.w3.org/2000/svg">
<path fill-rule="evenodd" clip-rule="evenodd" d="M6.64943 19.172C4.4661 17.5404 3.05264 14.9354 3.05264 12C3.05264 7.05852 7.05865 3.05264 11.9999 3.05264C16.0782 3.05264 20.5319 5.4899 21.6089 9.22252C20.4056 5.05136 16.5596 2 12.0001 2C6.47731 2 2 6.47726 2 12C2 17.523 6.47731 22 11.9999 22C17.5229 22 22 17.523 22 12V11.4736H21.4504L21.3773 11.4726C20.9743 11.4653 20.5716 11.4443 20.1701 11.4096C19.4199 11.3444 18.5641 11.2172 17.9814 10.9844C17.0439 10.6099 16.5145 10.1135 15.9095 9.53263L15.8746 9.49895C15.2686 8.91705 14.5879 8.26316 13.4081 7.708C12.2461 7.16105 10.961 7.24884 10.0165 7.44316C9.615 7.52629 9.22011 7.63801 8.83464 7.77747C8.68861 7.83031 8.57164 7.87747 8.48957 7.912C8.01429 8.112 7.55309 8.34884 7.08664 8.56842C7.08664 8.56842 8.00188 8.81936 8.45424 8.95958C8.57545 8.9984 8.69517 9.04173 8.81317 9.08948C9.11362 9.21015 9.40238 9.35814 9.67588 9.53163C10.164 9.84525 10.5687 10.2402 10.7347 10.725C9.6985 10.8612 8.72649 11.3163 7.99956 11.7438C7.63153 11.9606 7.27621 12.1985 6.93535 12.456C6.8068 12.5535 6.70475 12.635 6.63449 12.693C6.57515 12.7419 5.63929 13.5667 5.63929 13.5667C5.63929 13.5667 6.84656 13.6951 7.44243 13.8151C7.8386 13.8951 8.37281 14.0236 8.93016 14.2179C9.49004 14.4132 10.0557 14.6693 10.525 14.9969C10.9955 15.3253 11.3399 15.7046 11.5096 16.1391C12.005 17.4044 11.5191 18.6369 10.5438 19.3301C9.58013 20.0151 8.11465 20.1781 6.64943 19.172ZM10.0615 20.7369C10.4511 20.6105 10.8194 20.4255 11.1535 20.1883C12.4809 19.2446 13.1793 17.5166 12.4901 15.7556C12.2194 15.0638 11.702 14.5345 11.1276 14.1336C10.5521 13.732 9.88975 13.4379 9.27711 13.2242C8.90494 13.0952 8.52668 12.9846 8.14369 12.8926C8.27156 12.8091 8.40134 12.7285 8.53293 12.651C9.34318 12.1745 10.3634 11.7369 11.3418 11.7369C12.8166 11.7369 13.915 12.1895 14.9636 12.675C15.0589 12.7191 15.1546 12.764 15.2508 12.809C16.1879 13.2489 17.172 13.7105 18.3155 13.7105C19.4243 13.7105 20.2881 13.3969 20.8834 13.0726C20.3536 17.5086 16.5786 20.9474 11.9999 20.9474C11.3344 20.9474 10.6857 20.8748 10.0615 20.7369ZM19.7463 12.4264C19.3521 12.5609 18.8742 12.6579 18.3156 12.6579C17.4187 12.6579 16.648 12.2985 15.6695 11.8424L15.406 11.7197C14.4265 11.2661 13.293 10.7852 11.8175 10.6981C11.6198 9.72125 10.8791 9.0539 10.2451 8.6461C10.1757 8.60154 10.1054 8.5585 10.0341 8.51705C10.0973 8.50231 10.1625 8.48758 10.2285 8.4741C11.0806 8.29874 12.0984 8.25495 12.96 8.66042C13.9827 9.14169 14.5596 9.69575 15.1599 10.2722L15.1805 10.292C15.798 10.885 16.4514 11.5067 17.5909 11.9619C18.2241 12.2147 19.0435 12.3507 19.7463 12.4264Z" fill="white"/>
</svg>

<svg xmlns="http://www.w3.org/2000/svg" width="24" height="24" fill="none" viewBox="0 0 24 24">
    <path fill="#fff" fill-rule="evenodd" d="M6.65 19.172A8.947 8.947 0 0 1 12 3.052c4.078 0 8.532 2.438 9.609 6.17C20.406 5.053 16.559 2 12 2 6.477 2 2 6.477 2 12s4.477 10 10 10 10-4.477 10-10v-.526h-.55l-.073-.001a18 18 0 0 1-1.207-.063c-.75-.066-1.606-.193-2.189-.426-.937-.374-1.466-.87-2.072-1.451l-.034-.034c-.606-.582-1.287-1.236-2.467-1.791-1.162-.547-2.447-.46-3.391-.265a8.6 8.6 0 0 0-1.527.469c-.476.2-.937.437-1.403.656 0 0 .915.251 1.367.392q.182.057.36.13.45.18.862.442c.488.313.893.708 1.059 1.193-1.037.136-2.009.591-2.735 1.019a11 11 0 0 0-1.366.949c-.059.049-.995.874-.995.874s1.208.128 1.803.248c.397.08.93.209 1.488.403.56.195 1.126.451 1.595.779s.815.708.985 1.142c.495 1.265.01 2.498-.966 3.191-.964.685-2.43.848-3.895-.158m3.412 1.565a4 4 0 0 0 1.092-.549c1.327-.943 2.025-2.671 1.336-4.432-.27-.692-.788-1.222-1.362-1.622-.576-.402-1.238-.696-1.85-.91q-.56-.194-1.134-.331.192-.126.389-.242c.81-.476 1.83-.914 2.809-.914 1.475 0 2.573.453 3.622.938l.287.134c.937.44 1.921.902 3.065.902a5.3 5.3 0 0 0 2.567-.638 8.95 8.95 0 0 1-10.821 7.664m9.684-8.31a4.4 4.4 0 0 1-1.43.23c-.897 0-1.668-.358-2.646-.815l-.264-.122c-.98-.454-2.113-.935-3.588-1.022-.198-.977-.939-1.644-1.573-2.052a6 6 0 0 0-.21-.129q.093-.023.194-.043c.852-.175 1.87-.22 2.731.186 1.023.482 1.6 1.036 2.2 1.612l.02.02c.618.593 1.271 1.215 2.41 1.67.634.253 1.454.389 2.156.464" clip-rule="evenodd"/>
</svg>
